dist/svg/file-pdf-o.svg

<!-- Generated by Trend Micro Style Portal -->
<svg version="1.1" xmlns="http://www.w3.org/2000/svg" width="16" height="16" viewBox="0 0 16 16">
  <title>file-pdf-o</title>
  <path fill="rgb(34,34,34)" d="M11 0h-9c-0.5 0-1 0.5-1 1v14c0 0.5 0.5 1 1 1h12c0.5 0 1-0.5 1-1v-11l-4-4zM11 1.4l2.6 2.6h-2.6v-2.6zM14 15h-12v-14h8v4h4v10zM8.4 8.5c-0.2-0.4-0.5-1.2-0.5-1.2s0-0.2 0.1-0.5c0-0.3 0.3-1.3 0.2-1.9-0.1-0.5-0.2-0.9-0.7-0.9-1-0.1-0.8 1.1-0.7 1.7 0.1 0.7 0.4 1.8 0.4 1.8s-0.8 1.9-1.1 2.5c-0.3 0.7-0.7 1.3-0.7 1.3s-1.7 0.9-2.1 1.5c-0.9 1.4 0.7 1.5 1.6 0.4 0.6-0.7 1.2-1.8 1.2-1.8s2.7-0.8 3.6-0.9c0.3 0.1 1.3 0.7 2.1 0.8 1.2 0.2 1.5-0.7 1.1-1.2-0.7-0.5-2.6-0.1-3-0.1-0.4-0.2-1-0.7-1.5-1.5zM3.6 13.5c-0.2-0.1 0.9-1.2 1.5-1.7-0.4 0.7-1.3 1.8-1.5 1.7zM7.5 4.3c0.3 0.1 0.4 1.5 0.1 2-0.1-0.3-0.4-2-0.1-2zM6.3 10.9c0.5-0.9 0.8-1.7 1.2-2.6 0.4 0.7 0.8 1.4 1.5 1.9-0.9 0.2-1.8 0.4-2.7 0.7zM12.6 10.8c-0.2 0.3-1.4-0.2-1.8-0.3 0.8-0.1 2 0 1.8 0.3z"></path>
</svg>

<svg width="16" height="16" viewBox="0 0 16 16" fill="rgb(34, 34, 34)" xmlns="http://www.w3.org/2000/svg"><title>file-PDF-o</title><path d="M11 0H2C1.5 0 1 0.5 1 1V15C1 15.5 1.5 16 2 16H14C14.5 16 15 15.5 15 15V4L11 0ZM11 1.4L13.6 4H11V1.4ZM14 15H2V1H10V5H14V15ZM8.4 8.5C8.2 8.1 7.9 7.3 7.9 7.3C7.9 7.3 7.9 7.1 8 6.8C8 6.5 8.3 5.5 8.2 4.9C8.1 4.4 8 4 7.5 4C6.5 3.9 6.7 5.1 6.8 5.7C6.9 6.4 7.2 7.5 7.2 7.5C7.2 7.5 6.4 9.4 6.1 10C5.8 10.7 5.4 11.3 5.4 11.3C5.4 11.3 3.7 12.2 3.3 12.8C2.4 14.2 4 14.3 4.9 13.2C5.5 12.5 6.1 11.4 6.1 11.4C6.1 11.4 8.8 10.6 9.7 10.5C10 10.6 11 11.2 11.8 11.3C13 11.5 13.3 10.6 12.9 10.1C12.2 9.6 10.3 10 9.9 10C9.5 9.8 8.9 9.3 8.4 8.5ZM3.6 13.5C3.4 13.4 4.5 12.3 5.1 11.8C4.7 12.5 3.8 13.6 3.6 13.5ZM7.5 4.3C7.8 4.4 7.9 5.8 7.6 6.3C7.5 6 7.2 4.3 7.5 4.3ZM6.3 10.9C6.8 10 7.1 9.2 7.5 8.3C7.9 9 8.3 9.7 9 10.2C8.1 10.4 7.2 10.6 6.3 10.9ZM12.6 10.8C12.4 11.1 11.2 10.6 10.8 10.5C11.6 10.4 12.8 10.5 12.6 10.8Z" fill="rgb(34, 34, 34)" fill-opacity="1.00"/></svg>
